X: 1
T: Katy's Rambles
C: J-31
M: 6/8
Z: Transcribed to abc by Mary Lou Knack
R: jig
K: Dm
"Dm"A2d cBA| "F"fga "C"fec| "Dm"ded "F"cAF| "Gm"GFG "Dm"AFD|
"Dm"A2d cBA| "F"fga "C"fec| "Dm"ded "Am"cAG| "A7"Ad^c "Dm" d3:|
|:\
"Dm"fad fad| fga agf| "C"egc egc| efg "A7"gfe|
"Dm"fga "Gm"gab| "Dm"afd "Am"ecA| "Dm"fed "Am"cAG| "A7"Ad^c "Dm" d3:|
%%text 9/1/98
